icons/add-to-model-32.svg

<?xml version="1.0" encoding="UTF-8"?><svg id="icons" xmlns="http://www.w3.org/2000/svg" viewBox="0 0 32 32"><defs><style>.cls-1{fill:none;}.cls-1,.cls-2{stroke-width:0px;}</style></defs><path class="cls-2" d="M15.5,7c-1.20764,0-2.21722.86005-2.44946,2h-2.05054v-2h-4.29297l-1.12341-1.12341c.26196-.39526.36638-.86774.36638-1.37659,0-1.37891-1.07109-2.5-2.45-2.5s-2.5,1.12109-2.5,2.5,1.12109,2.5,2.5,2.5c.50885,0,.98132-.15442,1.37659-.41638l1.12341,1.12341v3.54462l-1.15033,1.15009c-.39001-.25165-.85181-.40173-1.34967-.40173-1.37891,0-2.5,1.12109-2.5,2.5s1.12109,2.5,2.5,2.5,2.45-1.12109,2.45-2.5c0-.51965-.10973-1.00232-.38201-1.40253l1.09766-1.09747h4.33435v-2h2.05054c.23224,1.13995,1.24182,2,2.44946,2,1.37891,0,2.45-1.12109,2.45-2.5s-1.07109-2.5-2.45-2.5ZM2,4.5c0-.82715.67285-1.5,1.5-1.5s1.5.67285,1.5,1.5-.67285,1.5-1.5,1.5-1.5-.67285-1.5-1.5ZM3.5,16c-.82715,0-1.5-.67285-1.5-1.5s.67285-1.5,1.5-1.5,1.5.67285,1.5,1.5-.67285,1.5-1.5,1.5ZM10,11h-3v-3h3v3ZM15.5,11c-.82715,0-1.5-.67285-1.5-1.5s.67285-1.5,1.5-1.5,1.5.67285,1.5,1.5-.67285,1.5-1.5,1.5ZM12.19336,24.5l-3.85352,3.85352-.70703-.70703,2.64648-2.64648h-3.2793c-2.20605,0-4-1.79395-4-4v-2h1v2c0,1.6543,1.3457,3,3,3h3.2793l-2.64648-2.64648.70703-.70703,3.85352,3.85352ZM28.5,21c-1.20764,0-2.21722.86005-2.44946,2h-2.05054v-2h-4.29297l-1.12341-1.12341c.26196-.39526.41638-.86774.41638-1.37659,0-1.37891-1.12109-2.5-2.5-2.5s-2.5,1.12109-2.5,2.5,1.12109,2.5,2.5,2.5c.50885,0,.98132-.15442,1.37659-.41638l1.12341,1.12341v3.54456l-1.15033,1.15015c-.39001-.25165-.85181-.40173-1.34967-.40173-1.37891,0-2.5,1.12109-2.5,2.5s1.12109,2.5,2.5,2.5,2.45-1.12109,2.45-2.5c0-.51965-.10979-1.00226-.38201-1.40253l1.09772-1.09747h4.33429v-2h2.05054c.23224,1.13995,1.24182,2,2.44946,2,1.37891,0,2.45-1.12109,2.45-2.5s-1.07109-2.5-2.45-2.5ZM16.5,20c-.82715,0-1.5-.67285-1.5-1.5s.67285-1.5,1.5-1.5,1.5.67285,1.5,1.5-.67285,1.5-1.5,1.5ZM16.5,30c-.82715,0-1.5-.67285-1.5-1.5s.67285-1.5,1.5-1.5,1.5.67285,1.5,1.5-.67285,1.5-1.5,1.5ZM23,25h-3v-3h3v3ZM28.5,25c-.82715,0-1.5-.67285-1.5-1.5s.67285-1.5,1.5-1.5,1.5.67285,1.5,1.5-.67285,1.5-1.5,1.5Z"/><rect class="cls-1" width="32" height="32"/></svg>

<svg xmlns="http://www.w3.org/2000/svg" viewBox="0 0 32 32"><path d="M15.5 7c-1.208 0-2.217.86-2.45 2H11V7H6.707L5.584 5.877c.262-.396.366-.868.366-1.377C5.95 3.121 4.879 2 3.5 2S1 3.121 1 4.5 2.121 7 3.5 7c.509 0 .981-.154 1.377-.416L6 7.707v3.545l-1.15 1.15A2.48 2.48 0 0 0 3.5 12C2.121 12 1 13.121 1 14.5S2.121 17 3.5 17s2.45-1.121 2.45-2.5c0-.52-.11-1.002-.382-1.403L6.666 12H11v-2h2.05c.233 1.14 1.242 2 2.45 2 1.379 0 2.45-1.121 2.45-2.5S16.879 7 15.5 7zM2 4.5C2 3.673 2.673 3 3.5 3S5 3.673 5 4.5 4.327 6 3.5 6 2 5.327 2 4.5zM3.5 16c-.827 0-1.5-.673-1.5-1.5S2.673 13 3.5 13s1.5.673 1.5 1.5S4.327 16 3.5 16zm6.5-5H7V8h3v3zm5.5 0c-.827 0-1.5-.673-1.5-1.5S14.673 8 15.5 8s1.5.673 1.5 1.5-.673 1.5-1.5 1.5zm-3.307 13.5L8.34 28.354l-.707-.708L10.279 25H7c-2.206 0-4-1.794-4-4v-2h1v2c0 1.654 1.346 3 3 3h3.28l-2.647-2.646.707-.708 3.853 3.854zM28.5 21c-1.208 0-2.217.86-2.45 2H24v-2h-4.293l-1.123-1.123c.262-.396.416-.868.416-1.377 0-1.379-1.121-2.5-2.5-2.5S14 17.121 14 18.5s1.121 2.5 2.5 2.5c.509 0 .981-.154 1.377-.416L19 21.707v3.545l-1.15 1.15A2.48 2.48 0 0 0 16.5 26c-1.379 0-2.5 1.121-2.5 2.5s1.121 2.5 2.5 2.5 2.45-1.121 2.45-2.5c0-.52-.11-1.002-.382-1.403L19.666 26H24v-2h2.05c.233 1.14 1.242 2 2.45 2 1.379 0 2.45-1.121 2.45-2.5S29.879 21 28.5 21zm-12-1c-.827 0-1.5-.673-1.5-1.5s.673-1.5 1.5-1.5 1.5.673 1.5 1.5-.673 1.5-1.5 1.5zm0 10c-.827 0-1.5-.673-1.5-1.5s.673-1.5 1.5-1.5 1.5.673 1.5 1.5-.673 1.5-1.5 1.5zm6.5-5h-3v-3h3v3zm5.5 0c-.827 0-1.5-.673-1.5-1.5s.673-1.5 1.5-1.5 1.5.673 1.5 1.5-.673 1.5-1.5 1.5z" stroke-width="0"/><path stroke-width="0" fill="none" d="M0 0h32v32H0z"/></svg>
